X: 1
T: Stanislaver Bulgar
Z: 2006 John Chambers <jc:trillian.mit.edu>
D: "Veretski Pass" by Veretski Pass (Cookie Segelstein, Joshua Horowitz, Stuart Brotman)
M: 2/4
L: 1/8
K: C
|: "C"Ge/e/ ee | ed c2 | "Dm"f>e f>e | fe d2 | "G7"de fg | ec dB |1 "C"c2 e2 | "(G7)"g4 :|2 "C"c4- | c2 z2 ||
|: "F"ef ff | f>e f/e/d | "G7"d4 | d4 | de fg | ec dB |1 "C"c2 e2 | "(C7)"g4 :|2 "C"c4- | c2 z2 ||
|: "C"c2 eg | c2 eg | "G7"f>e f/e/d | "C"de e2 | c2 eg | c2 eg | "G7"f>e f/e/d | "C"c2 z2 :|
%%sep 2 1 500
